; HEADER_BLOCK_START
; generated by Creality_Print V7.0.1.4212 on 2026-02-23 at 13:15:26
; total layer number: 157
; filament_density: 1.25
; filament_diameter: 1.75
; max_z_height: 140.30
; creality_uuid: 0697b1a0-787c-41ad-aca2-6fc0a4d6a8a6
; HEADER_BLOCK_END

; MINX = 24.44
; MINY = 24.44
; MINZ = 0.00
; MAXX = 195.56
; MAXY = 195.56
; MAXZ = 140.02

; multicolor_method = 0 
; THUMBNAIL_BLOCK_START

;
; THUMBNAIL_BLOCK_END

; THUMBNAIL_BLOCK_START

;
; THUMBNAIL_BLOCK_END

; external perimeters extrusion width = 1.50mm
; perimeters extrusion width = 1.50mm
; infill extrusion width = 1.50mm
; solid infill extrusion width = 1.50mm
; top infill extrusion width = 1.50mm
; first layer extrusion width = 1.50mm

; EXECUTABLE_BLOCK_START
EXCLUDE_OBJECT_DEFINE NAME=Anti_Sphare_Pot.stl_id_0_copy_0 CENTER=110,110 POLYGON=[[24.4413,119.64],[24.4414,100.36],[28.7316,81.563],[37.097,64.192],[49.1181,49.1181],[64.192,37.097],[81.5629,28.7316],[100.36,24.4414],[119.64,24.4414],[138.437,28.7316],[155.808,37.097],[170.882,49.1181],[182.903,64.192],[191.268,81.5629],[195.559,100.36],[195.559,119.64],[191.268,138.437],[182.903,155.808],[170.882,170.882],[155.808,182.903],[138.437,191.268],[119.64,195.559],[100.36,195.559],[81.563,191.268],[64.192,182.903],[49.1181,170.882],[37.097,155.808],[28.7316,138.437],[24.4413,119.64]]
M73 P0 R265
; max_print_temp = 60,225
;TYPE:Custom
M220 S100 ;Reset Feedrate 
M221 S100 ;Reset Flowrate 
 
M140 S60 ;Set final bed temp  
G28 ;Home 
 
G92 E0 ;Reset Extruder 
G1 Z2.0 F3000 ;Move Z Axis up 
M104 S225 ;Set final nozzle temp  
G1 X-2.0 Y20 Z0.28 F5000.0 ;Move to start position 
M190 S60 ;Wait for bed temp to stabilize  
M109 S225 ;Wait for nozzle temp to stabilize  
G1 X-2.0 Y145.0 Z0.28 F1500.0 E15 ;Draw the first line 
G1 X-1.7 Y145.0 Z0.28 F5000.0 ;Move to side a little 
G1 X-1.7 Y20 Z0.28 F1500.0 E30 ;Draw the second line 
G92 E0 ;Reset Extruder 
G1 E-1.0000 F1800 ;Retract a bit 
G1 Z2.0 F3000 ;Move Z Axis up 
G1 E0.0000 F1800
G90
G21
M83 ; use relative distances for extrusion
; filament start gcode
SET_PRESSURE_ADVANCE ADVANCE=0.05; Override pressure advance value
G1 E-.6 F2400
G1 Z.8 F18000
M106 S0
;LAYER_CHANGE
;:0.8
;HEIGHT:0.8
;BEFORE_LAYER_CHANGE
;0.8
G92 E0
;TIME_ELAPSED:69.693840
;_SET_FAN_SPEED_CHANGING_LAYER
SET_VELOCITY_LIMIT ACCEL=500 ACCEL_TO_DECEL=125
SET_VELOCITY_LIMIT SQUARE_CORNER_VELOCITY=9
; OBJECT_ID: 74
; printing object Anti_Sphare_Pot.stl id:0 copy 0
EXCLUDE_OBJECT_START NAME=Anti_Sphare_Pot.stl_id_0_copy_0
G1 X60.613 Y37.474 F18000
G1 E.6 F2400
;TYPE:Brim
;WIDTH:1.5
G1 F621.086
G1 X61.087 Y36.794 E.35148
G1 X61.627 Y36.18 E.3469
G1 X62.232 Y35.63 E.3469
G1 X62.895 Y35.151 E.3469
G1 X63.607 Y34.749 E.3469
G1 X64.36 Y34.429 E.3469
G1 X65.144 Y34.195 E.3469
G1 X65.953 Y34.05 E.34886
G1 X66.572 Y34.001 E.26319
G1 X67.397 Y34.008 E.35025
G1 X68.209 Y34.106 E.3469
G1 X69.002 Y34.294 E.3455
G1 X71.271 Y35.133 E1.02588
G1 X71.999 Y35.358 E.32314
G1 X72.71 Y35.548 E.3121
G1 X73.453 Y35.715 E.3232
G1 X74.228 Y35.858 E.33415
G1 X74.982 Y35.966 E.32312
G1 X75.74 Y36.044 E.32312
G1 X76.5 Y36.093 E.32314
G1 X77.236 Y36.111 E.31209
G1 X77.998 Y36.101 E.32314
G1 X78.758 Y36.061 E.32315
G1 X79.543 Y35.988 E.33417
G1 X80.272 Y35.891 E.31211
G1 X81.023 Y35.762 E.3231
G1 X81.768 Y35.603 E.32315
G1 X82.532 Y35.408 E.33423
G1 X83.262 Y35.19 E.32313
G1 X83.959 Y34.953 E.31209
G1 X84.67 Y34.68 E.32311
G1 X85.37 Y34.379 E.32318
G1 X86.057 Y34.05 E.32309
G1 X86.754 Y33.683 E.33423
G1 X87.413 Y33.301 E.32314
G1 X88.035 Y32.907 E.31206
G1 X88.663 Y32.475 E.32313
G1 X89.294 Y32.003 E.33425
G1 X89.885 Y31.523 E.32312
G1 X90.457 Y31.019 E.32314
G1 X91.008 Y30.494 E.32311
G1 X91.539 Y29.947 E.32316
G1 X92.048 Y29.38 E.32311
G1 X92.534 Y28.794 E.32316
G1 X92.981 Y28.209 E.31209
G1 X93.421 Y27.587 E.32314
G1 X93.854 Y26.918 E.33784
G1 X94.398 Y25.973 E.46248
G1 X94.841 Y25.254 E.35851
G1 X95.346 Y24.61 E.3469
G1 X95.919 Y24.026 E.3469
G1 X96.559 Y23.506 E.35006
G1 X96.971 Y23.228 E.21067
G1 X97.693 Y22.821 E.35148
G1 X98.446 Y22.502 E.3469
G1 X99.23 Y22.269 E.3469
G1 X100.035 Y22.125 E.3469
G1 X100.851 Y22.072 E.3469
G1 X101.668 Y22.11 E.3469
G1 X102.476 Y22.24 E.3469
G1 X103.27 Y22.46 E.34957
G1 X103.767 Y22.65 E.2254
G1 X104.589 Y23.049 E.38756
G1 X105.276 Y23.489 E.34618
G1 X105.914 Y24.006 E.34826
G1 X106.402 Y24.493 E.2922
G1 X107.041 Y25.191 E.40157
G1 X107.571 Y25.725 E.3191
G1 X108.129 Y26.244 E.32315
G1 X108.726 Y26.758 E.33418
G1 X109.329 Y27.234 E.32584
G1 X110.153 Y27.823 E.42931
G1 X111.189 Y28.485 E.52173
G1 X111.885 Y28.877 E.33864
G1 X112.54 Y29.213 E.31212
G1 X113.23 Y29.534 E.32308
G1 X113.933 Y29.828 E.32322
G1 X114.647 Y30.094 E.32313
G1 X115.396 Y30.339 E.33414
G1 X116.104 Y30.541 E.31209
G1 X116.844 Y30.721 E.32317
G1 X117.591 Y30.872 E.32314
G1 X118.343 Y30.994 E.32311
G1 X119.099 Y31.086 E.32317
G1 X119.884 Y31.15 E.33417
G1 X120.646 Y31.181 E.32312
G1 X121.408 Y31.183 E.3232
G1 X122.169 Y31.154 E.32311
G1 X122.903 Y31.099 E.31206
G1 X124.159 Y30.934 E.53727
G1 X125.154 Y30.75 E.42925
G1 X125.902 Y30.573 E.32585
G1 X126.636 Y30.369 E.32318
G1 X127.395 Y30.124 E.33863
G1 X128.544 Y29.683 E.52181
G1 X129.469 Y29.271 E.42922
G1 X130.154 Y28.925 E.32584
G1 X130.82 Y28.555 E.32315
G1 X131.471 Y28.159 E.32315
G1 X132.401 Y27.525 E.47722
G1 X133.113 Y27.069 E.3585
G1 X133.846 Y26.708 E.3469
G1 X134.616 Y26.431 E.3469
G1 X135.419 Y26.24 E.35006
G1 X135.91 Y26.168 E.2107
G1 X136.737 Y26.115 E.35147
G1 X137.554 Y26.154 E.3469
G1 X138.362 Y26.284 E.3469
G1 X139.15 Y26.504 E.3469
G1 X139.908 Y26.81 E.3469
G1 X140.628 Y27.199 E.34689
G1 X141.299 Y27.666 E.3469
G1 X141.917 Y28.209 E.34887
G1 X142.341 Y28.661 E.26275
G1 X142.85 Y29.311 E.35025
G1 X143.28 Y30.007 E.3469
G1 X143.627 Y30.744 E.34549
G1 X144.386 Y33.042 E1.02639
G1 X144.664 Y33.751 E.32312
G1 X144.959 Y34.425 E.31202
G1 X145.291 Y35.111 E.32317
G1 X145.793 Y36.027 E.44318
G1 X146.44 Y37.073 E.5216
G1 X146.881 Y37.707 E.32762
G1 X147.357 Y38.336 E.33424
G1 X147.845 Y38.929 E.32583
G1 X148.525 Y39.678 E.42931
G1 X149.425 Y40.57 E.53725
G1 X149.995 Y41.075 E.32309
G1 X150.584 Y41.558 E.32313
G1 X151.171 Y42.002 E.31208
G1 X151.796 Y42.438 E.32316
G1 X152.437 Y42.849 E.32313
G1 X153.095 Y43.235 E.32311
G1 X153.79 Y43.606 E.33421
G1 X154.475 Y43.938 E.32316
G1 X155.15 Y44.233 E.31206
G1 X155.859 Y44.511 E.32317
G1 X156.603 Y44.769 E.33419
G1 X157.333 Y44.989 E.32314
G1 X158.07 Y45.181 E.32314
G1 X158.789 Y45.338 E.31205
G1 X159.539 Y45.473 E.32311
G1 X160.293 Y45.578 E.32317
G1 X161.078 Y45.655 E.33418
G1 X161.838 Y45.699 E.3232
G1 X162.574 Y45.713 E.31205
G1 X163.336 Y45.699 E.32311
G1 X164.096 Y45.654 E.32317
G1 X164.854 Y45.58 E.32312
G1 X165.967 Y45.412 E.47722
G1 X166.806 Y45.31 E.35851
G1 X167.624 Y45.303 E.3469
G1 X168.438 Y45.387 E.3469
G1 X169.244 Y45.563 E.35006
G1 X169.718 Y45.712 E.21069
G1 X170.486 Y46.023 E.35147
G1 X171.205 Y46.413 E.3469
G1 X171.876 Y46.88 E.3469
G1 X172.491 Y47.42 E.3469
G1 X173.041 Y48.025 E.3469
G1 X173.52 Y48.688 E.34689
G1 X173.923 Y49.4 E.3469
G1 X174.245 Y50.157 E.34887
G1 X174.43 Y50.748 E.26291
G1 X174.607 Y51.555 E.35025
G1 X174.692 Y52.369 E.3469
G1 X174.685 Y53.183 E.3455
G1 X174.372 Y55.582 E1.02618
G1 X174.315 Y56.342 E.32311
G1 X174.288 Y57.077 E.31209
G1 X174.29 Y57.839 E.32317
G1 X174.344 Y58.882 E.44298
G1 X174.473 Y60.106 E.52179
G1 X174.595 Y60.869 E.32761
G1 X174.753 Y61.647 E.3369
G1 X175.002 Y62.628 E.42927
G1 X175.367 Y63.803 E.52176
G1 X175.636 Y64.527 E.32758
G1 X176.048 Y65.487 E.44302
G1 X176.592 Y66.59 E.52176
G1 X176.971 Y67.263 E.32758
G1 X177.371 Y67.912 E.32315
G1 X177.795 Y68.544 E.32311
G1 X178.26 Y69.181 E.33428
G1 X178.734 Y69.777 E.32311
G1 X179.214 Y70.335 E.31207
G1 X179.732 Y70.894 E.32316
G1 X180.291 Y71.449 E.33415
G1 X180.852 Y71.964 E.32314
G1 X181.434 Y72.457 E.32318
G1 X182.013 Y72.911 E.31207
G1 X182.63 Y73.357 E.32315
G1 X183.265 Y73.779 E.3231
G1 X183.938 Y74.189 E.33421
G1 X184.604 Y74.558 E.32312
G1 X185.26 Y74.891 E.31211
G1 X185.953 Y75.208 E.32316
G1 X186.658 Y75.498 E.32308
G1 X187.373 Y75.76 E.32317
G1 X188.448 Y76.091 E.47717
G1 X189.248 Y76.364 E.3585
G1 X189.988 Y76.712 E.3469
G1 X190.685 Y77.141 E.3469
G1 X191.335 Y77.649 E.35006
G1 X191.697 Y77.989 E.21065
G1 X192.254 Y78.603 E.35148
G1 X192.733 Y79.266 E.3469
G1 X193.135 Y79.978 E.3469
G1 X193.455 Y80.731 E.3469
G1 X193.688 Y81.515 E.34689
G1 X193.832 Y82.32 E.34691
G1 X193.886 Y83.136 E.3469
G1 X193.847 Y83.958 E.34887
G1 X193.758 Y84.571 E.26294
G1 X193.567 Y85.375 E.35025
G1 X193.29 Y86.144 E.3469
G1 X192.931 Y86.875 E.34549
G1 X191.608 Y88.901 E1.02624
G1 X191.239 Y89.538 E.3121
G1 X190.884 Y90.212 E.32311
G1 X190.456 Y91.127 E.42815
G1 X189.97 Y92.334 E.55217
G1 X189.733 Y93.031 E.31208
G1 X189.515 Y93.761 E.32312
G1 X189.327 Y94.499 E.32314
G1 X189.162 Y95.27 E.33425
G1 X189.033 Y96.021 E.3231
G1 X188.937 Y96.75 E.31209
G1 X188.866 Y97.509 E.32311
G1 X188.825 Y98.269 E.32313
G1 X188.814 Y99.057 E.33422
G1 X188.834 Y99.819 E.32317
G1 X188.882 Y100.553 E.31203
G1 X188.96 Y101.311 E.32313
G1 X189.068 Y102.065 E.32316
G1 X189.211 Y102.84 E.3342
G1 X189.379 Y103.583 E.32314
G1 X189.569 Y104.294 E.3121
G1 X189.794 Y105.022 E.3231
G1 X190.047 Y105.74 E.32309
G1 X190.339 Y106.473 E.33427
G1 X190.649 Y107.169 E.32314
G1 X190.989 Y107.858 E.32583
G1 X191.48 Y108.742 E.42922
G1 X192.133 Y109.785 E.52185
G1 X192.578 Y110.417 E.3275
G1 X193.057 Y111.042 E.33419
G1 X193.544 Y111.628 E.32321
G1 X194.054 Y112.194 E.32309
G1 X194.592 Y112.746 E.3268
G1 X195.392 Y113.487 E.46246
G1 X195.995 Y114.079 E.35851
G1 X196.51 Y114.714 E.3469
G1 X196.952 Y115.403 E.3469
G1 X197.317 Y116.144 E.35076
G1 X197.464 Y116.518 E.17038
G1 X197.732 Y117.402 E.39177
G1 X197.875 Y118.206 E.34613
G1 X197.928 Y119.022 E.3469
G1 X197.889 Y119.839 E.34689
G1 X197.759 Y120.647 E.3469
G1 X197.54 Y121.435 E.3469
G1 X197.234 Y122.193 E.3469
G1 X196.842 Y122.918 E.34957
G1 X196.547 Y123.36 E.22547
G1 X195.975 Y124.073 E.38756
G1 X195.393 Y124.645 E.34618
G1 X194.752 Y125.148 E.34549
G1 X192.68 Y126.399 E1.02642
G1 X192.051 Y126.828 E.32314
G1 X191.434 Y127.286 E.32588
G1 X190.651 Y127.927 E.42931
G1 X189.742 Y128.756 E.52171
G1 X189.2 Y129.306 E.32759
G1 X188.687 Y129.87 E.32312
G1 X188.18 Y130.473 E.33419
G1 X187.714 Y131.076 E.32315
G1 X187.272 Y131.696 E.32314
G1 X186.855 Y132.334 E.32313
G1 X186.476 Y132.964 E.31208
G1 X186.097 Y133.655 E.33421
G1 X185.757 Y134.337 E.3231
G1 X185.444 Y135.032 E.32319
G1 X185.159 Y135.738 E.32312
G1 X184.911 Y136.431 E.31209
G1 X184.674 Y137.182 E.33418
G1 X184.474 Y137.918 E.32311
G1 X184.308 Y138.634 E.31211
G1 X184.165 Y139.383 E.32314
G1 X184.052 Y140.136 E.32318
G1 X183.968 Y140.894 E.32313
G1 X183.913 Y141.68 E.33414
G1 X183.891 Y142.441 E.32319
G1 X183.897 Y143.177 E.31206
G1 X183.933 Y143.938 E.32314
G1 X184.001 Y144.723 E.33424
G1 X184.098 Y145.479 E.32309
G1 X184.224 Y146.23 E.32313
G1 X184.374 Y146.95 E.31207
G1 X184.558 Y147.69 E.32317
G1 X184.77 Y148.422 E.32315
G1 X185.011 Y149.144 E.32307
G1 X185.423 Y150.192 E.47733
G1 X185.709 Y150.987 E.3585
G1 X185.898 Y151.783 E.3469
G1 X185.997 Y152.595 E.3469
G1 X186.004 Y153.42 E.35006
G1 X185.964 Y153.915 E.21067
G1 X185.832 Y154.733 E.35147
G1 X185.612 Y155.521 E.3469
G1 X185.306 Y156.279 E.3469
G1 X184.916 Y156.999 E.3469
G1 X184.449 Y157.67 E.3469
G1 X183.909 Y158.285 E.3469
G1 X183.305 Y158.835 E.3469
G1 X182.637 Y159.319 E.34956
G1 X182.179 Y159.589 E.22559
G1 X181.354 Y159.982 E.38756
G1 X180.582 Y160.245 E.34618
G1 X179.786 Y160.42 E.3455
G1 X177.377 Y160.649 E1.02616
G1 X176.624 Y160.762 E.32314
G1 X175.876 Y160.905 E.32314
G1 X175.159 Y161.071 E.31208
G1 X174.424 Y161.271 E.32316
G1 X173.697 Y161.5 E.32312
G1 X172.98 Y161.757 E.32314
G1 X172.249 Y162.053 E.3342
G1 X171.555 Y162.367 E.32313
G1 X170.874 Y162.707 E.32314
G1 X170.229 Y163.062 E.31208
G1 X169.576 Y163.454 E.32312
G1 X168.917 Y163.886 E.33421
G1 X168.297 Y164.33 E.32315
G1 X167.695 Y164.797 E.32313
G1 X167.132 Y165.27 E.31208
G1 X166.568 Y165.782 E.32316
G1 X166.024 Y166.316 E.32312
G1 X165.485 Y166.89 E.3342
G1 X164.985 Y167.466 E.32314
G1 X164.509 Y168.06 E.32313
G1 X164.072 Y168.652 E.31206
G1 X163.643 Y169.282 E.32314
G1 X163.226 Y169.95 E.33421
G1 X162.848 Y170.612 E.32318
G1 X162.497 Y171.288 E.32313
G1 X162.173 Y171.978 E.32308
G1 X161.886 Y172.655 E.3121
G1 X161.607 Y173.392 E.33422
G1 X161.366 Y174.115 E.32313
G1 X161.154 Y174.847 E.32313
G1 X160.976 Y175.561 E.31211
G1 X160.821 Y176.307 E.32311
G1 X160.695 Y177.058 E.32314
G1 X160.599 Y177.814 E.32315
G1 X160.515 Y178.936 E.47726
G1 X160.428 Y179.777 E.3585
G1 X160.253 Y180.576 E.3469
G1 X159.989 Y181.35 E.3469
G1 X159.638 Y182.097 E.35006
G1 X159.387 Y182.526 E.21066
G1 X158.913 Y183.206 E.35147
G1 X158.373 Y183.82 E.3469
G1 X157.768 Y184.37 E.3469
G1 X157.105 Y184.849 E.3469
G1 X156.393 Y185.251 E.3469
G1 X155.64 Y185.571 E.3469
G1 X154.856 Y185.805 E.3469
G1 X154.047 Y185.95 E.34886
G1 X153.428 Y185.999 E.26323
G1 X152.602 Y185.992 E.35025
G1 X151.79 Y185.894 E.3469
G1 X150.998 Y185.706 E.34551
G1 X148.729 Y184.867 E1.02585
G1 X148.001 Y184.642 E.32313
G1 X147.29 Y184.452 E.31208
G1 X146.547 Y184.285 E.32318
G1 X145.798 Y184.146 E.32314
G1 X145.044 Y184.037 E.32309
G1 X144.286 Y183.958 E.32315
G1 X143.526 Y183.908 E.32317
G1 X142.738 Y183.889 E.3342
G1 X141.976 Y183.9 E.32312
G1 X141.216 Y183.941 E.32315
G1 X140.457 Y184.012 E.32312
G1 X139.728 Y184.109 E.31211
G1 X138.951 Y184.243 E.33418
G1 X138.196 Y184.406 E.3276
G1 X137.009 Y184.729 E.52175
G1 X136.048 Y185.045 E.42926
G1 X135.33 Y185.32 E.32587
G1 X134.607 Y185.632 E.33418
G1 X133.92 Y185.961 E.32316
G1 X133.269 Y186.305 E.31208
G1 X132.609 Y186.686 E.32311
G1 X131.965 Y187.093 E.32317
G1 X131.316 Y187.54 E.33419
G1 X130.706 Y187.997 E.32315
G1 X130.135 Y188.46 E.31207
G1 X129.563 Y188.963 E.32313
G1 X128.992 Y189.506 E.3342
G1 X128.461 Y190.053 E.32315
G1 X127.952 Y190.62 E.32314
G1 X127.466 Y191.206 E.32313
G1 X127.019 Y191.791 E.3121
G1 X126.579 Y192.413 E.32312
G1 X126.165 Y193.052 E.32316
G1 X125.602 Y194.027 E.47714
G1 X125.159 Y194.746 E.3585
G1 X124.654 Y195.39 E.3469
G1 X124.081 Y195.974 E.3469
G1 X123.441 Y196.494 E.35006
G1 X123.029 Y196.772 E.21066
G1 X122.307 Y197.179 E.35148
G1 X121.554 Y197.498 E.3469
G1 X120.77 Y197.731 E.3469
G1 X119.965 Y197.875 E.3469
G1 X119.149 Y197.928 E.3469
G1 X118.332 Y197.89 E.3469
G1 X117.524 Y197.76 E.3469
G1 X116.732 Y197.54 E.34887
G1 X116.154 Y197.316 E.26276
G1 X115.413 Y196.952 E.35025
G1 X114.724 Y196.511 E.3469
G1 X114.091 Y195.998 E.34549
G1 X112.41 Y194.257 E1.02645
G1 X111.852 Y193.738 E.32316
G1 X111.294 Y193.259 E.31201
G1 X110.697 Y192.785 E.32317
G1 X110.082 Y192.335 E.32317
G1 X109.45 Y191.91 E.32314
G1 X108.802 Y191.51 E.3231
G1 X108.138 Y191.135 E.32314
G1 X107.437 Y190.776 E.33421
G1 X106.74 Y190.453 E.32584
G1 X105.802 Y190.073 E.42924
G1 X104.604 Y189.661 E.53732
G1 X103.896 Y189.459 E.31205
G1 X103.156 Y189.279 E.32317
G1 X102.409 Y189.128 E.32313
G1 X101.657 Y189.006 E.3231
G1 X100.901 Y188.914 E.32318
G1 X100.142 Y188.852 E.32314
G1 X99.354 Y188.819 E.33418
G1 X98.592 Y188.817 E.32315
G1 X97.857 Y188.844 E.31208
G1 X97.097 Y188.901 E.32313
G1 X96.341 Y188.988 E.32312
G1 X95.562 Y189.11 E.33423
G1 X94.84 Y189.251 E.31207
G1 X94.098 Y189.427 E.32313
G1 X93.364 Y189.631 E.32314
G1 X92.614 Y189.873 E.33423
G1 X91.899 Y190.135 E.32312
G1 X91.195 Y190.425 E.32313
G1 X90.526 Y190.731 E.31207
G1 X89.846 Y191.075 E.32313
G1 X89.18 Y191.445 E.32316
G1 X88.529 Y191.841 E.32314
G1 X87.599 Y192.475 E.47719
G1 X86.887 Y192.931 E.3585
G1 X86.154 Y193.292 E.3469
G1 X85.384 Y193.569 E.3469
G1 X84.581 Y193.76 E.35006
G1 X84.09 Y193.832 E.21065
G1 X83.263 Y193.885 E.35148
G1 X82.446 Y193.846 E.3469
G1 X81.638 Y193.716 E.3469
G1 X80.85 Y193.496 E.3469
G1 X80.092 Y193.19 E.3469
G1 X79.373 Y192.801 E.3469
G1 X78.701 Y192.334 E.3469
G1 X78.083 Y191.791 E.34888
G1 X77.659 Y191.339 E.26286
G1 X77.15 Y190.689 E.35025
G1 X76.72 Y189.993 E.3469
G1 X76.373 Y189.256 E.3455
G1 X75.614 Y186.958 E1.02629
G1 X75.336 Y186.249 E.32315
G1 X75.041 Y185.575 E.3121
G1 X74.709 Y184.889 E.32311
